<map version="1.4" tiledversion="1.4.2" orientation="orthogonal" renderorder="right-down" compressionlevel="0" width="16" height="15" tilewidth="18" tileheight="18" infinite="0" backgroundcolor="#696A79" nextlayerid="2" nextobjectid="1"><tileset firstgid="1" name="Sand_blocks" tilewidth="18" tileheight="18" tilecount="100" columns="10" objectalignment="topleft" margin="0" spacing="1"><image source="Sand_tiles.png" width="170" height="170"/></tileset><layer id="1" name="Sand_tiles" width="16" height="15" opacity="1"><data encoding="csv">68,68,65,68,71,65,71,71,71,71,68,65,71,65,68,71,68,68,65,68,65,65,68,65,71,68,65,68,68,71,68,65,68,28,29,30,71,65,71,71,71,68,65,68,68,68,71,71,68,37,38,39,71,68,71,68,68,68,65,71,65,68,68,68,68,46,47,48,71,65,68,71,68,71,28,29,30,65,65,65,65,68,65,68,71,71,71,65,65,65,37,38,39,71,68,71,65,65,71,68,65,71,65,68,68,65,46,47,48,68,68,68,71,65,65,71,71,65,65,71,68,68,68,65,71,65,68,65,65,71,65,68,65,68,71,65,65,68,65,65,71,71,65,68,68,71,65,65,68,71,65,71,68,71,68,68,65,68,68,65,65,71,65,68,28,29,30,65,65,71,65,71,68,68,71,65,68,68,68,68,37,38,39,65,68,68,71,65,28,29,30,71,65,71,68,68,46,47,48,65,71,71,68,65,37,38,39,65,65,68,71,71,68,71,71,65,65,65,65,68,46,47,48,68,65,68,71,65,68,68,71,71,71,65,71,68,68,68,65,65</data></layer></map>
